icon/cg/more-r.svg

<svg viewBox="0 0 24 24" fill="none" xmlns="http://www.w3.org/2000/svg" height="1em" width="1em">
  <path d="M7 14C8.10457 14 9 13.1046 9 12C9 10.8954 8.10457 10 7 10C5.89543 10 5 10.8954 5 12C5 13.1046 5.89543 14 7 14Z" fill="currentColor"/>
  <path d="M14 12C14 13.1046 13.1046 14 12 14C10.8954 14 10 13.1046 10 12C10 10.8954 10.8954 10 12 10C13.1046 10 14 10.8954 14 12Z" fill="currentColor"/>
  <path d="M17 14C18.1046 14 19 13.1046 19 12C19 10.8954 18.1046 10 17 10C15.8954 10 15 10.8954 15 12C15 13.1046 15.8954 14 17 14Z" fill="currentColor"/>
  <path fill-rule="evenodd" clip-rule="evenodd" d="M0 5C0 3.34315 1.34315 2 3 2H21C22.6569 2 24 3.34315 24 5V19C24 20.6569 22.6569 22 21 22H3C1.34315 22 0 20.6569 0 19V5ZM3 4H21C21.5523 4 22 4.44772 22 5V19C22 19.5523 21.5523 20 21 20H3C2.44772 20 2 19.5523 2 19V5C2 4.44772 2.44771 4 3 4Z" fill="currentColor"/>
</svg>

<svg width="24" height="24" fill="none" xmlns="http://www.w3.org/2000/svg"><path d="M7 14a2 2 0 1 0 0-4 2 2 0 0 0 0 4ZM14 12a2 2 0 1 1-4 0 2 2 0 0 1 4 0ZM17 14a2 2 0 1 0 0-4 2 2 0 0 0 0 4Z" fill="currentColor"/><path fill-rule="evenodd" clip-rule="evenodd" d="M0 5a3 3 0 0 1 3-3h18a3 3 0 0 1 3 3v14a3 3 0 0 1-3 3H3a3 3 0 0 1-3-3V5Zm3-1h18a1 1 0 0 1 1 1v14a1 1 0 0 1-1 1H3a1 1 0 0 1-1-1V5a1 1 0 0 1 1-1Z" fill="currentColor"/></svg>
